Obsidian-SemiLight/actions/16s/go-jump-definition.svg

<svg viewBox="0 0 16 16" xmlns="http://www.w3.org/2000/svg"><path d="m5 2-3 1 4 1 3-1zm7 0-2 2 2 2v-1.2851562c.62475.94275 1 2.0641562 1 3.2851562 0 3.324-2.676 5-6 5v1c3.87825 0 7-2.12175 7-6 0-1.90875-.769703-3.6235625-2.001953-4.8828125zm-10 2v4l3 1v-4zm7 0-3 1v4l3-1z" fill="#4d4d4d"/></svg>

<svg xmlns="http://www.w3.org/2000/svg" viewBox="0 0 16 16">
  <defs id="defs3051">
    <style type="text/css" id="current-color-scheme">
      .ColorScheme-Text {
        color:#4d4d4d;
      }
      </style>
  </defs>
 <path style="fill:currentColor;fill-opacity:1;stroke:none" 
     d="M 5 2 L 2 3 L 6 4 L 9 3 L 5 2 z M 12 2 L 10 4 L 12 6 L 12 4.7148438 C 12.62475 5.6575938 13 6.779 13 8 C 13 11.324 10.324 13 7 13 L 7 14 C 10.87825 14 14 11.87825 14 8 C 14 6.09125 13.230297 4.3764375 11.998047 3.1171875 L 12 2 z M 2 4 L 2 8 L 5 9 L 5 5 L 2 4 z M 9 4 L 6 5 L 6 9 L 9 8 L 9 4 z "
     class="ColorScheme-Text"
     />
</svg>
